public/assets/logo3.svg

<svg width="105" height="33" viewBox="0 0 105 33" fill="none" xmlns="http://www.w3.org/2000/svg">
<path d="M16.4424 23.5998C14.2797 22.7965 12.0551 22.6729 10.0159 23.229C8.5947 23.5998 7.23524 24.3413 5.99938 25.2682L5.13426 26.0097L4.88709 26.2569L5.44322 26.7512C5.50502 26.7512 5.50502 26.813 5.56682 26.8748C5.6904 26.9984 5.814 27.0602 5.99938 27.1838L6.37012 27.431L6.74089 27.122C6.80268 27.0602 6.92627 26.9366 7.04985 26.8748C8.16213 25.9479 9.398 25.33 10.6957 25.021C12.3641 24.5885 14.1561 24.6503 15.9481 25.33C17.4311 25.8861 20.459 26.5659 24.1048 25.021L24.2284 24.9592L24.4138 24.7739C24.4138 24.7121 24.4756 24.7121 24.5374 24.6503C24.8463 24.2795 25.1553 23.9087 25.4025 23.4762L26.6383 21.5606L24.661 22.6729C21.7567 24.2795 19.0996 24.5885 16.4424 23.5998Z" fill="#828282"/>
<path d="M7.977 16.9263C9.64542 16.4937 11.4374 16.5555 13.2294 17.2353C15.2068 17.9768 20.2739 19.0273 25.9589 13.8984L27.1947 12.6625L27.0711 12.3536C27.0093 12.1064 26.8858 11.7974 26.7622 11.4885L26.4532 10.6234L25.8353 11.2413C25.7735 11.3649 25.6499 11.4267 25.5263 11.5503C22.8074 14.331 18.6054 17.1735 13.7856 15.4432C11.6228 14.6399 9.39824 14.5163 7.35907 15.0725C5.38168 15.6286 3.65146 16.6791 2.04483 18.1622V18.1004L1.11793 19.0891C1.11793 19.1508 1.05615 19.1509 0.994359 19.2126L0.808967 19.398L0.870764 19.6452C0.932558 19.9542 1.05614 20.2631 1.11793 20.5721L1.4887 21.5608L2.10663 20.7575C2.16842 20.6339 2.29201 20.5721 2.3538 20.4485C3.65146 19.2744 5.44347 17.606 7.977 16.9263Z" fill="#828282"/>
<path d="M1.98306 15.8139C3.4043 14.3308 5.01092 13.4039 6.74113 12.9096C8.40955 12.477 10.2016 12.5388 11.9936 13.2185C17.555 15.2577 22.3749 11.9209 24.4758 10.1289L25.2791 9.32556L25.5881 9.07837L25.3409 8.70763C25.1556 8.52225 25.032 8.27507 24.8466 8.0279L24.4758 7.53354L24.0433 7.9661C23.9815 8.02789 23.8579 8.15148 23.7961 8.21327C21.2008 10.685 17.1842 13.2185 12.6115 11.4883C10.4487 10.685 8.22417 10.5614 6.18499 11.1176C4.88733 11.4883 3.65146 12.1063 2.4156 12.9096L1.11793 13.9601C0.994347 14.0836 0.932553 14.1454 0.808967 14.269L0.685391 14.3926V14.578C0.623598 15.0105 0.62359 15.4431 0.561797 15.8139L0.5 17.3587L1.55049 16.2464C1.67408 16.1228 1.79768 15.9374 1.98306 15.8139Z" fill="#828282"/>
<path d="M18.2349 27.8018C18.0495 27.74 17.926 27.6782 17.7406 27.6164C15.5778 26.8131 13.3532 26.6895 11.3141 27.2457C10.8815 27.3692 10.449 27.4928 10.0164 27.6782L8.53336 28.3579L8.16262 28.5433L9.39848 28.9759C9.76924 29.0994 10.14 29.223 10.5108 29.3466L10.6961 29.4084L10.8815 29.3466C11.0669 29.2848 11.2523 29.1612 11.4377 29.1612C11.5612 29.1612 11.6848 29.0994 11.8084 29.0377C13.2915 28.6669 14.8981 28.6669 16.6283 29.223C16.8137 29.2848 16.9373 29.3466 17.1227 29.4084L17.4316 29.532L17.617 29.4702C18.0495 29.3466 18.5439 29.223 18.9147 29.0377L20.6449 28.4197L18.8529 27.9872C18.6675 27.9254 18.4203 27.8636 18.2349 27.8018Z" fill="#828282"/>
<path d="M27.6895 15.0106L26.7626 15.9375C26.6391 16.0611 26.5155 16.1847 26.3919 16.3083C23.8584 18.7182 19.78 21.3135 15.2073 19.5833C13.0445 18.78 10.82 18.6564 8.78079 19.2126C6.8652 19.7687 5.13497 20.7574 3.59014 22.2404L2.78683 23.1055L2.53966 23.4145L2.78683 23.7853C2.97221 24.0324 3.09581 24.2178 3.21939 24.465L3.59014 25.0211L4.0227 24.465C4.08449 24.4032 4.20808 24.2796 4.26987 24.2178C5.75291 22.6112 7.35954 21.6225 9.21334 21.1281C10.8818 20.6956 12.6738 20.7574 14.4658 21.4371C16.0106 21.9932 17.6172 22.1786 19.2239 21.9933C22.0664 21.6843 24.9089 20.0777 27.0098 18.2857C27.1334 18.1621 27.257 18.1003 27.3806 17.9767L27.566 17.7913V17.6059C27.566 17.2352 27.6278 16.8026 27.6278 16.4319L27.6895 15.0106Z" fill="#828282"/>
<path d="M4.20711 9.32573C4.57787 9.14035 5.01044 9.01676 5.3812 8.89317C7.04962 8.46062 8.84163 8.52241 10.6336 9.20214C11.8077 9.63469 12.9818 9.82007 14.2794 9.82007C16.8748 9.82007 19.4701 8.89317 21.88 7.10117L23.1159 6.11247L22.5597 5.67991C22.3744 5.49453 22.1272 5.30916 21.88 5.18557L21.5092 4.9384L21.2003 5.18557C21.0767 5.24736 21.0149 5.37094 20.8913 5.43274C17.6163 7.90447 14.3412 8.58421 11.2516 7.41013C9.02701 6.60682 6.80243 6.42144 4.57787 7.10117C4.39249 7.16296 4.20711 7.22475 3.95994 7.28654L3.83637 7.34834L3.65097 7.53371C3.65097 7.5955 3.58919 7.59551 3.5274 7.6573C3.28023 8.02806 2.97125 8.33704 2.72407 8.7078L1.55 10.4998L3.4656 9.5111C3.77457 9.5111 4.02173 9.38752 4.20711 9.32573Z" fill="#828282"/>
<path d="M9.27466 5.12368L9.46004 5.18547C10.2633 5.49444 11.4992 5.80341 13.0441 5.80341C14.6507 5.80341 16.1955 5.43264 17.7404 4.81471L19.6559 3.88781L18.3583 3.45527C17.9875 3.33168 17.6168 3.20809 17.1842 3.1463H16.9988L16.8135 3.20808C16.6281 3.26987 16.4427 3.39347 16.2573 3.45527C14.4035 4.13499 12.5497 4.25858 10.7577 3.76423C10.5723 3.70244 10.3869 3.64064 10.2016 3.57884L10.0162 3.51705L9.8308 3.57884C9.46004 3.70243 9.08929 3.82602 8.71853 4.0114L7.29727 4.62934L8.78032 5.06188C8.90391 5.00009 9.08928 5.06188 9.27466 5.12368Z" fill="#828282"/>
<path d="M90.7339 9.49255C90.4524 9.21114 90.0976 9.07043 89.6694 9.07043C89.2411 9.07043 88.8802 9.21114 88.5866 9.49255C88.3051 9.76173 88.1644 10.1043 88.1644 10.5203C88.1644 10.9363 88.3051 11.285 88.5866 11.5664C88.8802 11.8478 89.2411 11.9886 89.6694 11.9886C90.0976 11.9886 90.4524 11.8478 90.7339 11.5664C91.0153 11.285 91.156 10.9363 91.156 10.5203C91.156 10.1043 91.0153 9.76173 90.7339 9.49255Z" fill="#0E0E0E"/>
<path d="M69.9612 19.7886C69.4962 19.397 69.2393 18.8831 69.1904 18.2469L66.4925 18.2102C66.5047 19.03 66.7372 19.7702 67.1899 20.4309C67.6426 21.0916 68.2666 21.6116 69.0619 21.9909C69.8694 22.358 70.7871 22.5415 71.8148 22.5415C72.7692 22.5415 73.6257 22.3641 74.3842 22.0093C75.1551 21.6544 75.7546 21.1711 76.1828 20.5594C76.6111 19.9354 76.8252 19.2318 76.8252 18.4488C76.8252 17.6413 76.6417 16.9989 76.2746 16.5217C75.9198 16.0323 75.4487 15.6714 74.8614 15.4389C74.2741 15.1942 73.5522 14.9923 72.6958 14.8333C71.8515 14.6742 71.2275 14.5396 70.8238 14.4295C70.42 14.3071 70.108 14.1542 69.8878 13.9707C69.6675 13.7749 69.5574 13.5057 69.5574 13.1631C69.5574 12.686 69.741 12.3189 70.108 12.062C70.4751 11.805 70.9645 11.6766 71.5762 11.6766C72.237 11.6766 72.7692 11.8478 73.173 12.1904C73.5767 12.5208 73.8092 12.9613 73.8704 13.5118H76.5682C76.556 12.741 76.3297 12.0497 75.8892 11.438C75.461 10.8262 74.8675 10.349 74.109 10.0064C73.3626 9.65161 72.5184 9.4742 71.5762 9.4742C70.6586 9.4742 69.8327 9.64549 69.0986 9.98808C68.3767 10.3184 67.8078 10.7773 67.3918 11.3646C66.988 11.9518 66.7861 12.6187 66.7861 13.365C66.7861 14.1848 66.9635 14.8455 67.3184 15.3471C67.6854 15.8366 68.1565 16.2097 68.7315 16.4667C69.3066 16.7114 70.0162 16.9133 70.8605 17.0723C71.717 17.2436 72.3471 17.3904 72.7508 17.5128C73.1668 17.6229 73.485 17.782 73.7052 17.99C73.9377 18.1857 74.0539 18.4549 74.0539 18.7975C74.0539 19.2869 73.8459 19.6723 73.4299 19.9537C73.0261 20.2229 72.5 20.3575 71.8515 20.3575C71.0685 20.3575 70.4384 20.1678 69.9612 19.7886Z" fill="#0E0E0E"/>
<path fill-rule="evenodd" clip-rule="evenodd" d="M39.1852 9.58432L34.4868 22.4314H37.3315L38.3226 19.6234H43.2045L44.1955 22.4314H47.1503L42.4887 9.58432H39.1852ZM39.0567 17.4027L40.7452 12.5208L42.452 17.4027H39.0567Z" fill="#0E0E0E"/>
<path d="M83.2854 12.8878C84.3988 12.8878 85.3104 13.2304 86.02 13.9156C86.7419 14.6008 87.1028 15.7326 87.1028 17.3109V22.4314H84.5151V17.421C84.5151 16.638 84.356 16.0446 84.0379 15.6408C83.7198 15.2248 83.2426 15.0168 82.6064 15.0168C81.9457 15.0168 81.4257 15.2431 81.0464 15.6958C80.6793 16.1486 80.4958 16.7787 80.4958 17.5862V22.4314H77.908V9.58432H80.4958V14.1542C81.1932 13.31 82.1231 12.8878 83.2854 12.8878Z" fill="#0E0E0E"/>
<path d="M95.5838 12.5575C95.5838 12.2883 95.6449 12.0926 95.7673 11.9702C95.8896 11.8478 96.0854 11.7867 96.3546 11.7867H97.9513V9.58432H95.8407C94.8986 9.58432 94.1889 9.81067 93.7118 10.2634C93.2346 10.7038 92.996 11.3401 92.996 12.1721V12.998H91.436V15.182H92.996V22.4314H95.5838V15.182H99.6726V22.4314H102.26V15.182H104.298V12.998H102.26V9.58432H99.6726V12.998H95.5838V12.5575Z" fill="#0E0E0E"/>
<path d="M90.9541 12.998H88.3663V22.4314H90.9541V12.998Z" fill="#0E0E0E"/>
<path d="M50.3482 9.58432H47.7604V22.4314H50.3482V9.58432Z" fill="#0E0E0E"/>
<path d="M52.3901 12.998H50.8301V15.182H52.3901V22.4314H54.9779V15.182H57.0151V12.998H54.9779V9.58432H52.3901V12.998Z" fill="#0E0E0E"/>
<path d="M60.3691 21.2568H62.7182V18.3937H65.5803V16.0446H62.7182V13.1815L62.7173 13.1815H60.3681V16.0446H57.505V18.3937H60.3681V21.2568L60.3691 21.2568Z" fill="#0E0E0E"/>
</svg>

<svg xmlns="http://www.w3.org/2000/svg" width="105" height="33" fill="none" viewBox="0 0 105 33"><path fill="#828282" d="M16.442 23.6c-2.162-.803-4.387-.927-6.426-.371-1.421.37-2.78 1.112-4.017 2.04l-.865.74-.247.248.556.494c.062 0 .062.062.124.124.123.123.247.185.432.309l.371.247.37-.309c.063-.062.186-.185.31-.247 1.112-.927 2.348-1.545 3.646-1.854 1.668-.433 3.46-.37 5.252.309 1.483.556 4.511 1.236 8.157-.309l.123-.062.186-.185c0-.062.062-.062.123-.124.31-.37.618-.741.866-1.174l1.235-1.915-1.977 1.112c-2.904 1.607-5.561 1.916-8.219.927m-8.465-6.674c1.668-.432 3.46-.37 5.252.31 1.978.74 7.045 1.791 12.73-3.338l1.236-1.235-.124-.31a7 7 0 0 0-.309-.864l-.309-.866-.618.618c-.062.124-.185.186-.309.31-2.719 2.78-6.92 5.623-11.74 3.892-2.163-.803-4.388-.927-6.427-.37-1.977.556-3.708 1.606-5.314 3.09V18.1l-.927.99c0 .06-.062.06-.124.123l-.185.185.062.247c.062.31.185.618.247.927l.37.989.619-.803c.061-.124.185-.186.247-.31 1.297-1.174 3.09-2.842 5.623-3.522"/><path fill="#828282" d="M1.983 15.814c1.421-1.483 3.028-2.41 4.758-2.904 1.669-.433 3.46-.371 5.253.309 5.561 2.039 10.38-1.298 12.482-3.09l.803-.803.31-.248-.248-.37c-.185-.186-.309-.433-.494-.68l-.371-.494-.433.432-.247.247c-2.595 2.472-6.612 5.006-11.184 3.275-2.163-.803-4.388-.927-6.427-.37-1.298.37-2.534.988-3.77 1.792l-1.297 1.05-.309.309-.124.124v.185c-.061.433-.061.865-.123 1.236L.5 17.359l1.05-1.113c.124-.123.248-.309.433-.432m16.252 11.988c-.186-.062-.309-.124-.494-.186-2.163-.803-4.388-.927-6.427-.37-.432.123-.865.247-1.298.432l-1.483.68-.37.185 1.235.433 1.113.37.185.062.186-.061c.185-.062.37-.186.556-.186.123 0 .247-.062.37-.123 1.483-.371 3.09-.371 4.82.185.186.062.31.124.495.185l.309.124.185-.062c.432-.123.927-.247 1.298-.432l1.73-.618-1.792-.433c-.186-.062-.433-.123-.618-.185M27.69 15.01l-.927.928-.371.37c-2.534 2.41-6.612 5.006-11.185 3.275-2.163-.803-4.387-.927-6.426-.37-1.916.556-3.646 1.544-5.19 3.027l-.804.866-.247.308.247.371c.185.247.309.433.432.68l.371.556.433-.556.247-.247c1.483-1.607 3.09-2.596 4.943-3.09 1.669-.432 3.46-.37 5.253.31 1.545.555 3.151.74 4.758.555 2.842-.309 5.685-1.915 7.786-3.707.123-.124.247-.186.37-.31l.186-.185v-.185c0-.37.062-.803.062-1.174z"/><path fill="#828282" d="M4.207 9.326c.37-.186.803-.31 1.174-.433 1.669-.432 3.46-.37 5.253.31 1.174.432 2.348.617 3.645.617 2.596 0 5.191-.927 7.601-2.719l1.236-.989-.556-.432a2.7 2.7 0 0 0-.68-.494l-.37-.248-.31.248c-.123.061-.185.185-.309.247-3.275 2.471-6.55 3.151-9.64 1.977-2.224-.803-4.449-.989-6.673-.309-.186.062-.37.124-.618.186l-.124.061-.185.186c0 .062-.062.062-.124.123-.247.371-.556.68-.803 1.05L1.55 10.5l1.916-.989c.309 0 .556-.123.741-.185m5.068-4.202.185.061c.803.31 2.04.618 3.584.618 1.607 0 3.151-.37 4.696-.988l1.916-.927-1.298-.433c-.37-.123-.741-.247-1.174-.309H17l-.185.062c-.186.062-.371.185-.557.247-1.854.68-3.707.804-5.5.31l-.555-.186-.186-.062-.185.062a8 8 0 0 0-1.112.432l-1.422.618 1.483.433c.124-.062.31 0 .495.062"/><path fill="#0e0e0e" d="M90.734 9.493q-.422-.423-1.065-.423-.642 0-1.082.423-.423.403-.423 1.027t.423 1.046q.44.423 1.082.423t1.065-.423a1.42 1.42 0 0 0 .422-1.046q0-.624-.422-1.027M69.961 19.789q-.698-.588-.77-1.542l-2.698-.037q.018 1.23.697 2.22.68.993 1.872 1.56 1.21.552 2.753.552 1.43 0 2.57-.533 1.155-.532 1.798-1.45a3.64 3.64 0 0 0 .642-2.11q0-1.212-.55-1.927a3.1 3.1 0 0 0-1.414-1.083q-.88-.367-2.165-.606a26 26 0 0 1-1.872-.403q-.606-.184-.936-.46-.33-.293-.33-.807 0-.715.55-1.101.55-.385 1.468-.385.991 0 1.597.513.606.495.697 1.322h2.698a3.56 3.56 0 0 0-.679-2.074q-.642-.918-1.78-1.432-1.119-.531-2.533-.532-1.376 0-2.477.514-1.083.496-1.707 1.377a3.45 3.45 0 0 0-.606 2q0 1.23.532 1.982.55.735 1.413 1.12.863.366 2.13.605 1.284.258 1.89.44.624.166.954.478.35.294.349.808 0 .733-.624 1.156-.606.404-1.579.404-1.174 0-1.89-.57"/><path fill="#0e0e0e" fill-rule="evenodd" d="m39.185 9.584-4.698 12.847h2.844l.992-2.808h4.882l.99 2.808h2.955L42.49 9.584zm-.128 7.819 1.688-4.882 1.707 4.882z" clip-rule="evenodd"/><path fill="#0e0e0e" d="M83.285 12.888q1.67 0 2.735 1.028 1.083 1.028 1.083 3.395v5.12h-2.588v-5.01q0-1.174-.477-1.78-.477-.624-1.432-.624-.99 0-1.56.679-.55.68-.55 1.89v4.845h-2.588V9.584h2.588v4.57q1.046-1.266 2.79-1.266m12.298-.33q0-.404.183-.588.184-.183.588-.183h1.596V9.584h-2.11q-1.413 0-2.13.68-.715.66-.715 1.908v.826h-1.56v2.184h1.56v7.25h2.588v-7.25h4.089v7.25h2.587v-7.25h2.038v-2.184h-2.038V9.584h-2.587v3.414h-4.09zm-4.63.44h-2.588v9.433h2.588zM50.348 9.584H47.76v12.847h2.588zm2.042 3.414h-1.56v2.184h1.56v7.25h2.588v-7.25h2.037v-2.184h-2.037V9.584H52.39zm7.98 8.259h2.348v-2.863h2.862v-2.35h-2.862v-2.863h-2.35v2.864h-2.863v2.349h2.863v2.863z"/></svg>
